X: 09077
T: MARY'S FAVORITE
C: Bob McQuillen 5 Dec 92
B: Bob's Note Book 9 #77
%R: reel
Z: 2018 John Chambers <jc:trillian.mit.edu>
M: C
L: 1/8
K: D
A2 \
| d2dB ABAG | FGAB A4   | GAGF EFGA | B2A2 AGFA |
| d2dB ABAG | FGAB A2FA | GABd Aceg | f2d2 d2  :|
|: FG \
| A2AG FAd2 | B2BA GBe2 | c2cB ABcA | defg a2FG |
| A2AG FAdc | B2BA GBed | cdcB ABcd | e2dc d2  :|
%%begintext align
%% Have you ever danced in Grafton Center?
%% A lot of people have never even heard of Grafton Center, but that's where great
%% fiddler Skip Gorman lives (actuall, Grafton), and he was trying to get a
%% dance going in a real nice little hall up there. Last night, Mary DesRoisiers
%% called the last dance there in this series; we had a real good time and came
%% home in a snow storm! I thought she needed a sourvenir of the occasion,
%% so here's a tune for you, Mary, with love from MAC.
%%endtext

%%sep 1 1 500

%%sep 1 1 500

